frontend/public/svg/health/tablet.svg

<svg width="155" height="156" viewBox="0 0 155 156" fill="none" xmlns="http://www.w3.org/2000/svg">
<g clip-path="url(#clip0)">
<path d="M53.7459 154.742C51.3917 154.606 49.1659 153.625 47.4767 151.98C43.007 147.556 38.4263 143.245 33.9087 138.871C28.02 133.168 22.0164 127.576 16.3115 121.694C11.9469 117.194 7.95262 112.333 3.83474 107.597C3.22732 106.79 2.68218 105.938 2.20383 105.048C0.456659 102.274 0.492701 99.5132 2.42496 96.8761C5.74078 92.3473 8.79792 87.5797 12.5325 83.4251C26.4215 67.9795 40.4477 52.6594 54.6115 37.4652C63.9564 27.4488 73.6364 17.7441 83.1802 7.91348C84.2743 6.78652 85.4215 5.70291 86.6135 4.67968C90.7326 1.1453 95.7313 0.347953 100.337 3.1643C104.622 5.78965 108.94 8.61188 112.513 12.0951C124.493 23.7726 136.17 35.7625 147.9 47.6954C149.612 49.4769 151.15 51.4189 152.49 53.4948C154.551 56.6203 154.393 58.5926 151.88 61.3899C146.851 66.9832 141.807 72.5686 136.613 78.0083C117.919 97.5849 99.0543 116.995 79.2579 135.473C73.679 140.681 68.1093 145.901 62.4555 151.025C60.304 152.974 58.0548 154.94 53.7459 154.742ZM93.8148 7.22764C92.5618 8.54553 91.7992 9.35683 91.0267 10.1582C73.9619 27.8505 56.8031 45.4534 39.8683 63.2684C31.29 72.2929 23.0662 81.6556 14.7845 90.9585C12.1244 93.9475 9.7964 97.2338 7.28854 100.423C7.93608 101.455 8.64762 102.446 9.4194 103.389C13.1015 107.314 16.7246 111.306 20.5819 115.055C27.421 121.703 34.3982 128.209 41.3489 134.742C46.1401 139.246 50.9888 143.694 55.8325 148.188C86.9128 119.625 115.662 89.0801 145.231 58.8513C142.889 56.2712 140.768 53.8329 138.536 51.5003C130.239 42.8196 121.92 34.1583 113.582 25.5165C109.225 20.9949 104.919 16.4157 100.405 12.0563C98.5089 10.2231 96.1277 8.89404 93.8148 7.22764Z" fill="black"/>
<path d="M36.6447 120.822C34.5116 120.99 33.3073 119.485 33.8665 117.869C34.2973 116.72 34.9606 115.672 35.8146 114.79C42.0571 108.175 48.2195 101.477 54.6693 95.0655C72.5905 77.2465 90.5834 59.5002 108.65 41.8268C109.649 40.7714 110.816 39.8894 112.105 39.2166C112.541 39.0721 113.006 39.0375 113.459 39.1159C113.912 39.1943 114.338 39.3833 114.7 39.6661C115.187 40.2122 115.231 41.5697 114.901 42.3264C114.335 43.4206 113.573 44.4019 112.653 45.2221C102.858 54.966 93 64.6497 83.2265 74.4125C68.8481 88.7791 54.4963 103.173 40.1706 117.592C38.9275 118.835 37.5741 119.975 36.6447 120.822Z" fill="black"/>
<path d="M70.8702 101.773C70.313 94.9211 79.0318 88.5146 85.4488 92.7151C88.3551 94.6185 90.6936 96.5672 92.257 99.7865C95.3057 106.064 90.8432 112.624 84.3416 113.382C78.7082 114.037 70.6812 109.049 70.8702 101.773ZM77.6568 100.854C77.5681 103.43 80.7908 106.273 83.3013 105.741C83.9405 105.577 84.5135 105.22 84.9421 104.718C86.05 103.417 84.6257 97.5865 83.0702 96.8553C82.7604 96.7299 82.429 96.6669 82.0942 96.6689C79.9874 96.5967 77.7316 98.7383 77.6568 100.856V100.854Z" fill="black"/>
<path d="M63.9487 132.726C58.4577 132.776 52.2271 127.47 51.465 122.381C51.1266 120.257 51.5504 118.082 52.6614 116.24C53.7724 114.399 55.4989 113.01 57.5356 112.319C64.8505 109.733 71.8575 114.879 73.8783 120.437C75.6564 125.321 71.3357 131.522 65.6238 132.549C64.9641 132.668 64.2873 132.691 63.9487 132.726ZM67.1784 122.642C67.227 120.93 64.1095 117.151 62.5507 117.034C60.5752 116.885 58.266 118.776 58.329 120.489C58.4019 122.466 61.7606 125.658 63.8044 125.693C65.4459 125.72 67.1325 124.195 67.1771 122.642H67.1784Z" fill="black"/>
<path d="M111.059 83.3066C111.085 84.7676 110.791 86.2161 110.199 87.5524C109.607 88.8881 108.73 90.0787 107.632 91.0415C106.532 92.0037 105.236 92.7152 103.834 93.126C102.432 93.5362 100.957 93.6367 99.5121 93.4188C97.2104 93.1739 95.0247 92.2853 93.2054 90.8545C91.3854 89.4236 90.0064 87.5098 89.2254 85.3307C88.7239 84.0758 88.5336 82.7178 88.6707 81.3737C88.8079 80.0288 89.268 78.7371 90.013 77.6096C92.9199 72.7487 101.564 68.894 107.189 75.147C110.074 78.3558 111.028 79.6869 111.059 83.3066ZM104.379 82.3404C104.397 79.0968 103.329 77.2617 101.42 77.2591C98.5893 77.2591 95.366 79.8555 95.4297 82.0904C95.4862 84.0935 98.3176 86.5607 100.603 86.6014C102.742 86.6388 104.365 84.807 104.379 82.3404Z" fill="black"/>
<path d="M120.857 71.952C117.24 71.6258 113.862 70.0073 111.34 67.3931C108.383 64.4396 107.993 60.5462 110.063 56.9048C112.223 53.1072 117.927 50.2417 122.028 50.8934C126.45 51.5957 131.291 55.9821 132.238 60.1432C133.675 66.4395 128.821 71.973 120.857 71.952ZM120.837 65.7075C124.074 65.6123 125.283 63.7556 124.465 61.2897C123.612 58.7162 121.371 57.5874 119.323 56.2485C118.094 55.4444 117.077 55.7613 116.01 56.6763C113.168 59.1165 113.272 62.1542 116.522 64.049C117.904 64.7377 119.349 65.293 120.837 65.7075Z" fill="black"/>
<path d="M102.844 36.9781C102.976 39.5319 101.603 41.5444 99.6539 43.1819C96.5645 45.7784 93.0334 47.0471 89.0587 45.6629C84.7964 44.1789 81.7247 41.3015 80.6083 36.8292C80.2873 35.5114 80.2998 34.134 80.6457 32.8224C80.9923 31.5107 81.6598 30.3062 82.5891 29.318C84.7885 26.7191 87.9186 25.085 91.3086 24.7657C92.53 24.6496 93.762 24.8019 94.9184 25.2119C98.4115 26.4544 102.884 33.1306 102.844 36.9781ZM92.1749 39.4763C94.61 39.4887 96.6518 37.6031 96.5796 35.407C96.4923 32.7711 94.8823 30.3479 93.1555 30.2527C90.7041 30.1215 86.772 32.897 86.7332 34.7912C86.6965 36.6178 90.0051 39.4651 92.1749 39.4769V39.4763Z" fill="black"/>
<path d="M71.6638 65.1192C65.9713 65.1881 60.9654 60.58 61.0809 55.1297C61.2023 49.2509 66.6244 45.4514 72.903 44.8988C77.4507 44.4984 81.8948 50.8314 82.2958 56.0152C82.6575 60.6542 77.3746 65.0496 71.6638 65.1192ZM73.5573 50.202C72.5709 50.1651 71.5877 50.344 70.6767 50.7259C69.7663 51.1078 68.9498 51.6836 68.2843 52.4132C66.4794 54.2654 67.0714 57.0378 69.5576 57.7118C70.9372 57.9708 72.3635 57.771 73.6184 57.1429C74.9311 56.5239 75.1844 55.0734 74.6941 53.6301C74.3056 52.4894 73.9347 51.342 73.5573 50.202Z" fill="black"/>
<path d="M52.7049 87.553C48.2043 87.505 43.3526 83.9221 41.9749 79.6992C41.4967 78.3734 41.3889 76.9419 41.6631 75.559C41.9373 74.1761 42.5831 72.8943 43.5312 71.8514C44.6571 70.4416 46.1126 69.3304 47.7695 68.6163C49.4264 67.9022 51.2337 67.6075 53.0317 67.7572C57.7869 68.044 62.9227 73.7298 62.781 78.4876C62.6228 83.8086 58.3933 87.6133 52.7049 87.553ZM56.7787 76.7805C56.824 74.2713 55.7247 73.2153 53.0448 73.1929C50.1569 73.1693 47.4929 75.0655 47.5737 77.0916C47.6465 78.9064 50.5147 81.4464 52.5139 81.4661C54.8859 81.4891 56.7289 79.4623 56.7787 76.7805Z" fill="black"/>
<path d="M41.5929 97.4015C41.5312 102.774 36.3174 106.413 30.8947 104.706C29.1118 104.178 27.4838 103.225 26.1507 101.928C24.8175 100.631 23.819 99.0305 23.2411 97.263C22.9073 96.308 22.7694 95.2959 22.8354 94.2858C22.9013 93.2764 23.1696 92.2906 23.6247 91.3875C24.0798 90.4837 24.7122 89.681 25.4841 89.0273C26.256 88.3729 27.1517 87.8813 28.1178 87.5807C29.6654 87.072 31.312 86.9381 32.9214 87.1908C34.5309 87.4442 36.0568 88.0762 37.3735 89.0358C38.6901 89.9954 39.7596 91.2549 40.4934 92.7093C41.227 94.1644 41.6038 95.7724 41.5929 97.4015ZM35.1084 96.497C35.1537 94.6271 33.2895 91.9847 31.9276 91.9873C30.0407 91.9906 28.5241 93.109 28.5149 94.5024C28.505 96.2745 30.8279 98.6315 32.7089 98.7529C33.0169 98.7726 33.3256 98.7286 33.6159 98.6236C33.9062 98.5192 34.172 98.3558 34.3969 98.1445C34.6218 97.9331 34.8007 97.6778 34.9232 97.3949C35.0455 97.1114 35.1086 96.8062 35.1084 96.497Z" fill="black"/>
</g>
<defs>
<clipPath id="clip0">
<rect width="153.583" height="154.239" fill="white" transform="translate(0.67749 0.884155)"/>
</clipPath>
</defs>
</svg>

<svg xmlns="http://www.w3.org/2000/svg" width="155" height="156" fill="none" viewBox="0 0 155 156"><g fill="#000" clip-path="url(#a)"><path d="M53.746 154.742a9.8 9.8 0 0 1-6.27-2.762c-4.469-4.424-9.05-8.735-13.567-13.109-5.889-5.703-11.893-11.295-17.597-17.177-4.365-4.5-8.36-9.361-12.477-14.097a20 20 0 0 1-1.631-2.549c-1.747-2.774-1.711-5.535.221-8.172 3.316-4.529 6.373-9.296 10.108-13.45a3475 3475 0 0 1 42.079-45.96C63.956 27.448 73.636 17.743 83.18 7.912a52 52 0 0 1 3.433-3.233c4.12-3.535 9.118-4.332 13.724-1.516 4.285 2.626 8.603 5.448 12.176 8.931 11.98 11.678 23.657 23.668 35.387 35.6a38.5 38.5 0 0 1 4.59 5.8c2.061 3.125 1.903 5.098-.61 7.895-5.029 5.593-10.073 11.179-15.267 16.618-18.694 19.577-37.559 38.987-57.355 57.465-5.579 5.208-11.149 10.428-16.802 15.552-2.152 1.949-4.401 3.915-8.71 3.717M93.815 7.228c-1.253 1.318-2.016 2.129-2.788 2.93-17.065 17.693-34.224 35.295-51.159 53.11-8.578 9.025-16.802 18.388-25.083 27.69-2.66 2.99-4.989 6.276-7.496 9.465a29 29 0 0 0 2.13 2.966c3.682 3.925 7.306 7.917 11.163 11.666 6.839 6.648 13.816 13.154 20.767 19.687 4.791 4.504 9.64 8.952 14.484 13.446 31.08-28.563 59.829-59.108 89.398-89.337-2.342-2.58-4.463-5.018-6.695-7.35a7655 7655 0 0 0-24.954-25.984c-4.357-4.522-8.663-9.101-13.177-13.46-1.896-1.834-4.277-3.163-6.59-4.83"/><path d="M36.645 120.822c-2.133.168-3.338-1.337-2.779-2.953a8.9 8.9 0 0 1 1.949-3.079c6.242-6.615 12.404-13.313 18.854-19.725a9312 9312 0 0 1 53.981-53.238 13.1 13.1 0 0 1 3.455-2.61 2.79 2.79 0 0 1 2.595.45c.487.545.531 1.903.201 2.66a10.1 10.1 0 0 1-2.248 2.895C102.858 54.966 93 64.65 83.226 74.412a16678 16678 0 0 0-43.055 43.18c-1.243 1.243-2.597 2.383-3.526 3.23m34.225-19.049c-.557-6.852 8.162-13.258 14.579-9.058 2.906 1.903 5.245 3.852 6.808 7.072 3.049 6.277-1.414 12.837-7.915 13.595-5.634.655-13.66-4.333-13.472-11.609m6.787-.919c-.089 2.576 3.134 5.419 5.644 4.887a3.2 3.2 0 0 0 1.641-1.023c1.108-1.301-.316-7.132-1.872-7.863a2.6 2.6 0 0 0-.976-.186c-2.107-.072-4.362 2.07-4.437 4.187zm-13.708 31.872c-5.491.05-11.722-5.256-12.484-10.345a9.11 9.11 0 0 1 6.07-10.062c7.316-2.586 14.323 2.56 16.343 8.118 1.778 4.884-2.542 11.085-8.254 12.112-.66.119-1.337.142-1.675.177m3.23-10.084c.048-1.712-3.07-5.491-4.628-5.608-1.976-.149-4.285 1.742-4.222 3.455.073 1.977 3.432 5.169 5.475 5.204 1.642.027 3.328-1.498 3.373-3.051zm43.88-39.335a10.04 10.04 0 0 1-3.427 7.734 10.05 10.05 0 0 1-8.12 2.377 12.31 12.31 0 0 1-10.287-8.087 8.37 8.37 0 0 1 .788-7.721c2.907-4.861 11.551-8.716 17.176-2.463 2.885 3.209 3.839 4.54 3.87 8.16m-6.68-.967c.018-3.243-1.05-5.078-2.959-5.08-2.83 0-6.054 2.596-5.99 4.83.056 2.004 2.888 4.47 5.173 4.511 2.139.038 3.762-1.794 3.776-4.26m16.478-10.389a15.1 15.1 0 0 1-9.517-4.559c-2.957-2.953-3.347-6.847-1.277-10.488 2.16-3.798 7.864-6.663 11.965-6.012 4.422.703 9.263 5.09 10.21 9.25 1.437 6.296-3.417 11.83-11.381 11.809m-.02-6.245c3.237-.095 4.446-1.951 3.628-4.417-.853-2.574-3.094-3.703-5.142-5.041-1.229-.805-2.246-.488-3.313.427-2.842 2.44-2.738 5.478.512 7.373a24.3 24.3 0 0 0 4.315 1.658m-17.993-28.729c.132 2.554-1.241 4.566-3.19 6.204-3.09 2.596-6.62 3.865-10.595 2.48-4.263-1.483-7.334-4.36-8.45-8.833a8.15 8.15 0 0 1 1.98-7.511 13.02 13.02 0 0 1 8.72-4.552 8.4 8.4 0 0 1 3.61.446c3.493 1.242 7.965 7.919 7.925 11.766m-10.67 2.498c2.436.013 4.478-1.873 4.406-4.069-.088-2.636-1.698-5.06-3.424-5.154-2.452-.131-6.384 2.644-6.423 4.538-.037 1.827 3.272 4.674 5.442 4.686M71.664 65.12c-5.693.068-10.699-4.54-10.583-9.99.121-5.88 5.543-9.679 11.822-10.231 4.548-.4 8.992 5.932 9.393 11.116.361 4.64-4.921 9.035-10.632 9.104m1.893-14.918a6.8 6.8 0 0 0-5.273 2.211c-1.805 1.852-1.213 4.625 1.274 5.299a6.4 6.4 0 0 0 4.06-.57c1.313-.618 1.566-2.069 1.076-3.512-.388-1.14-.76-2.288-1.137-3.428M52.705 87.553c-4.5-.048-9.352-3.63-10.73-7.854a7.76 7.76 0 0 1 1.556-7.848 10.99 10.99 0 0 1 9.5-4.094c4.756.287 9.892 5.973 9.75 10.73-.158 5.322-4.388 9.126-10.076 9.066m4.074-10.772c.045-2.51-1.054-3.566-3.734-3.588-2.888-.024-5.552 1.873-5.471 3.899.073 1.814 2.94 4.354 4.94 4.374 2.372.023 4.215-2.004 4.265-4.685M41.593 97.402c-.062 5.372-5.276 9.011-10.698 7.304a11.48 11.48 0 0 1-7.654-7.443 7.53 7.53 0 0 1 2.243-8.236 7.5 7.5 0 0 1 2.634-1.446 10.27 10.27 0 0 1 13.475 9.82m-6.485-.905c.046-1.87-1.819-4.512-3.18-4.51-1.887.004-3.404 1.122-3.413 2.515-.01 1.773 2.313 4.13 4.194 4.25a2.25 2.25 0 0 0 1.688-.608 2.26 2.26 0 0 0 .711-1.647"/></g><defs><clipPath id="a"><path fill="#fff" d="M.677.884H154.26v154.24H.677z"/></clipPath></defs></svg>
